static/img/svg/bx-coffee.svg

<svg xmlns="http://www.w3.org/2000/svg" width="24" height="24" viewBox="0 0 24 24"><path d="M3 20c0 .553.447 1 1 1h12c.553 0 1-.447 1-1v-2h3c.553 0 1-.447 1-1v-7c0-.553-.447-1-1-1h-3V8c0-.553-.447-1-1-1H4C3.447 7 3 7.447 3 8V20zM19 11v5h-2v-5H19zM5 9h10v10H5V9zM5 2H7V5H5zM9 2H11V5H9zM13 2H15V5H13z"/></svg>

<svg xmlns="http://www.w3.org/2000/svg" width="24" height="24"><path d="M3 19c0 1.103.897 2 2 2h10c1.103 0 2-.897 2-2v-1h3a1 1 0 0 0 1-1v-7a1 1 0 0 0-1-1h-3V8a1 1 0 0 0-1-1H4a1 1 0 0 0-1 1v11zm16-8v5h-2v-5h2zM5 9h10l.002 10H5V9zM5 2h2v3H5zM9 2h2v3H9zM13 2h2v3h-2z"/></svg>
